X:1
T:Schilflied
%%score [ 1 2 3 4 ]
L:1/8
Q:1/4=80
M:4/4
K:F
V:1 treble nm="Sopran" snm="S"
V:2 treble nm="Alt" snm="A"
V:3 treble-8 nm="Tenor" snm="T"
V:4 bass nm="Bass" snm="B"
V:1
 A3"^Largo" A GFED | d2 ^c2 A3 A | B3 B d3 B | (B2 A2) f3 e |[M:4/4] d2 ^c2 d3 =c | %5
w: Drü- ben geht die So- nne|schei- den, und der|mü- de Tag ent-|schlief. * Nie- der-|han- gen hier die|
 c =B _B2 A2 A2 | d4- dded | d4 z2 d>d | f3 d d3 B | (B2 A2) c3 F | _G2 F2 _ec AF | %11
w: Wei- * den in den|Teich * so still, so|tief, in den|Teich, so still, so|tief. * Und ich|muss die Lieb- * ste *|
 _A _G F2!f! F2 F2 | f3 _d c2 d B | A2 z2 z4 | z2 =B>B B>B c>d | d2 _e2 z4 | z2 ^c>c c>c d>e | %17
w: mei- * den: quill, o|Trä- ne, quill her *|vor.|Trau- rig säu- seln hier die|Wei- den,|trau- rig säu- seln hier die|
 e2 f2 z2 f>e | e2 d2 z2 d>c | (c2 B2) z2 B>A | G3 G e2 d2 | (d4 ^c2) !fermata!z2 || A3 A GFED | %23
w: Wei- den, und im|Win- de bebt das|Rohr, * und im|Win- de bebt das|Rohr. *|In mein sti- lles, tie- fes|
 d2 ^c2 A3 A | B3 B d3 B | (B2 A2) f3 e | d2 ^c2 d3 =c | c =B _B2 A2 A2 | d4- dded | d4 z2 dd | %30
w: Lei- den strahlst du,|Fer- ne, hell und|mild. * Wie durch|Bin- sen hier und|Wei- * den strahlt des|A- * bend- ster- nes|Bild, strahlt des|
 (f2 ed ^cd) F G | A6 E2 | (G4 ^F4) |] %33
w: A- * * * * bend- *|ster- nes|Bild. *|
V:2
 F2 E2 DD^CD | F2 E2 E3 E | E2 F2 G2 E2 | (E2 F2) z2 FF |[M:4/4] G2 G2 z2 FF | F2 E2 F2 A2 | %6
w: Drü- ben geht die So- nne|schei- den, und der|mü- de Tag ent-|schlief. * Nie- der-|han- gen hier die|Wei- den in den|
 Ac B ^F G4- | GBAE F2 F>F | F3 F E3 E | (E2 F2) z2 _EE | _E2 E2 z2 EE | _E2 E2!f! E2 E2 | %12
w: Teich * so * still,|* so still, so tief, in den|Teich, so still, so|tief. * Und ich|muss die Lieb- ste|mei- den: quill, o|
 _D3 F F2 E2 | F2 z2 z2 _A>A | _A2 A2 A>A G>F | F2 _E2 z2 G>G | G2 B2 B>B A>G | G2 F2 z2 A>A | %18
w: Trä- ne, quill her-|vor. Trau- rig|säu- seln, säu- seln hier die|Wei- den, trau- rig|säu- seln, säu- seln hier die|Wei- den, und im|
 B2 B2 z2 F>F | F4 z2 F>F | E3 E G2 G2 | A6 !fermata!z2 || F2 E2 DD^CD | F2 E2 E3 E | E2 F2 G2 E2 | %25
w: Win- de bebt das|Rohr, und im|Win- de bebt das|Rohr.|In mein sti- lles, tie- fes|Lei- den strahlst du,|Fer- ne, hell und|
 (E2 F2) z2 FF | G2 G2 z2 FF | F2 E2 F2 A2 | Ac B ^F G4- | GB AE"^," F2 FF | F8- | F2 F2 F2 E2 | %32
w: mild. * Wie durch|Bin- sen hier und|Wei- den strahlt des|A- * bend- * ster-|* * nes * Bild, strahlt des|A-|* bend- ster- nes|
 (^C4 D4) |] %33
w: Bild. *|
V:3
 d2 c2 BABA | ^G2 A2 ^c3 c | ^c2 d2 B2 =c2 | c4 z2 dd |[M:4/4][K:treble-8] e2 e2 z2 dd | %5
w: Drü- ben geht die So- nne|schei- den, und der|mü- de Tag ent-|schlief. Nie- der-|han- gen hier die|
 d2 c2 c2 _e2 | d6 d2 | d6 d>d | d3 B B3 G | (G2 F2) z2 cc | c2 c2 z2 cc | c2 c2!f! B2 A2 | %12
w: Wei- den in den|Teich, so|still, in den|Teich, so still, so|tief. * Und ich|muss die Lieb- ste|mei- den: quill, o|
 B3 B _A2 _G2 | F2 f>f f2 f2 | f2 f>f f>f _e>=B | =B>B c>_e e2 e2 | ^d2 g>g g>g f>^c | %17
w: Trä- ne, quill her-|vor. Trau- rig säu- seln|hier, trau- rig säu- seln hier die|Wei- den, trau- rig säu- seln|hier, trau- rig säu- seln hier die|
 ^c2 d2 z2 f>f | f2 f2 z2 d>d | d4 z2 d>d | d3 d ^c2 d2 | e6 !fermata!z2 || d2 c2 BABA | %23
w: Wei- den, und im|Win- de bebt das|Rohr, und im|Win- de bebt das|Rohr.|In mein sti- lles, tie- fes|
 ^G2 A2 ^c3 c | ^c2 d2 B2 =c2 | c4 z2 dd | e2 e2 z2 dd | d2 c2 c2 _e2 | d6 d2 | d6"^," dd | d8- | %31
w: Lei- den strahlst du,|Fer- ne, hell und|mild. Wie durch|Bin- sen hier und|Wei- den strahlt des|A- bend-|ster- nes, des|A-|
 d2 d2 d2 ^c2 | A8 |] %33
w: * bend- ster- nes|Bild.|
V:4
 D,2 D,2 D,D,G,F, | A,,2 A,,2 A,3 A, | G,2 F,2 E,2 C,2 | F,4 z2 A,A, |[M:4/4] A,2 A,2 z2 B,_A, | %5
w: Drü- ben geht die So- nne|schei- den, und der|mü- de Tag ent-|schlief. Nie- der|han- gen hier die|
 G,2 C,2 F,2 F,2 | B,,6 B,2 | A,6 A,>A, | G,3 G, C,3 C, | F,,4 z2 A,A, | B,2 A,2 z2 A,,A,, | %11
w: Wei- den in den|Teich, so|still, in den|Teich, so still, so|tief. Und ich|muss die Lieb- ste|
 B,,2 A,,2!f! G,,2 F,,2 | B,,3 B,, B,,2 B,,2 | F,,2 z2 z4 | z2 G,>G, G,>G, G,>G, | G,2 C,2 z4 | %16
w: mei- den: quill, o|Trä- ne, quill her-|vor.|trau- rig säu- seln hier die|Wei- den,|
 z2 A,>A, A,>A, A,>A, | A,2 D,2 [C,C]4 | [B,,B,]4 [A,,A,]4 | [G,,G,]4 [A,,A,]4 | %20
w: trau- rig säu- seln hier die|Wei- den, im|Win- de|bebt das|
"^," [B,,B,]4 B,2 B,2 | A,6 !fermata!z2 || D,2 D,2 D,D,G,F, | A,,2 A,,2 A,3 A, | G,2 F,2 E,2 C,2 | %25
w: Rohr, bebt das|Rohr.|In mein sti- lles, tie- fes|Lei- den strahlst du,|Fer- ne, hell und|
 F,4 z2 A,A, | A,2 A,2 z2 B,_A, | G,2 C,2 F,2 F,2 | B,,6 B,2 | %29
w: mild. Wie durch|Bin- sen hier und|Wei- den strahlt des|A- bend-|
 A,6"^5\nAuf dem Teich, dem regungslosen,\nWeilt des Mondes holder Glanz,\nFlechtend seine bleichen Rosen\nIn des Schilfes grünen Kranz.\n\nHirsche wandeln dort am Hügel,\nBlicken in die Nacht empor;\nManchmal regt sich das Geflügel\nTräumerisch im tiefen Rohr.\n\nWeinend muß mein Blick sich senken;\nDurch die tiefste Seele geht\nMir ein süßes Deingedenken,\nWie ein stilles Nachtgebet!""^," ^G,"^© 2013 by CPDL. This edition may be fully distributed, duplicated, performed and recorded."G, | %30
w: ster- nes, des|
 (A,2 A,,4)"^Die Schilflieder gehören zur „Lotte-Dichtung“, die Lenau in den \nJahren 1831 bis 33 schrieb. Die Schilflieder beschreiben die\nZerrissenheit von Lenaus Liebe zu Charlotte Gmelin. In einem\nBrief an einen Freund schrieb er,  „... mein Innerstes Wesen ist\nTrauer, und meine Liebe schmerzliches Entsagen“. Lenau\nkonnte sich nicht entscheiden, Charlotte zu heiraten und ging\nzwei Jahre nach Amerika. Er müsse „... in seinem Innern\nglücklicher werden, um Lotte glücklich zu machen“. 1833 kehrte\ner zurück, sah aber Charlotte nie mehr wieder." B,,2 | %31
w: A- * bend-|
 A,,6 A,,2 | D,8 |] %33
w: ster- nes|Bild.|

